X: 25
T: JIG: Battering Ram
C: C: Trad.; S: Various
C: Set Leaders: Mars, Tania, Sophie, Anton
Z: Mars Agliullin ed.; JACKB at The Session
N: https://thesession.org/members/26966/sets/94272
R: Jig
M: 6/8
L: 1/8
Q: 3/8=116
K: Gmaj
|:dBG BAG|dBG G2B|dBG AGE|GED D2B|
dBG BAG|BdB BAG|AGA BAB|1 GED D2B:|2 GED D2B||
|:deg aga|bge edB|deg aga|bge e2a|
bag age|ged ege|dBG AGE|1 GED D2B:|2 GED D2c||
|:B2G A2G|B2D D2c|BAG AGE|GED D2c|
B2G A2G|BdB BAG|AGA BAB|1 GED D2c:|2 GED D2B ||

